icons/svgs/chart-pie-simple-solid.svg

<svg width="24" height="24" viewBox="0 0 24 24" fill="none" xmlns="http://www.w3.org/2000/svg">
<path d="M21.3359 11.375H12.625V2.66406C12.625 2.3125 12.8984 2 13.25 2C18.0547 2 22 5.94531 22 10.75C22 11.1016 21.6875 11.375 21.3359 11.375ZM9.42188 3.48438C10.125 3.32812 10.75 3.91406 10.75 4.61719V13.25H19.3828C20.0859 13.25 20.6719 13.875 20.5156 14.5781C19.6172 18.8359 15.8672 22 11.375 22C6.17969 22 2 17.8203 2 12.625C2 8.13281 5.16406 4.38281 9.42188 3.48438Z" fill="black"/>
</svg>

<svg xmlns="http://www.w3.org/2000/svg" width="24" height="24" fill="currentColor" class="icon-chart-pie-simple-solid" viewBox="0 0 24 24">
  <mask id="a" width="20" height="20" x="2" y="2" maskUnits="userSpaceOnUse" style="mask-type:alpha">
    <path d="M21.336 11.375h-8.711v-8.71c0-.353.273-.665.625-.665C18.055 2 22 5.945 22 10.75c0 .352-.312.625-.664.625M9.422 3.485c.703-.157 1.328.43 1.328 1.132v8.633h8.633c.703 0 1.289.625 1.133 1.328C19.617 18.836 15.867 22 11.375 22A9.353 9.353 0 0 1 2 12.625c0-4.492 3.164-8.242 7.422-9.14"/>
  </mask>
  <g mask="url(#a)">
    <path d="M0 0h24v24H0z"/>
  </g>
</svg>
